src/assets/img/bottom-filling/adv2.svg

<svg width="60" height="60" viewBox="0 0 60 60" fill="none" xmlns="http://www.w3.org/2000/svg">
<path d="M59.9915 46.8191C59.987 46.6888 59.9824 46.5577 59.9778 46.4262C59.9731 46.2947 59.9682 46.1628 59.9634 46.0303L59.9596 45.9312L59.9577 45.8815L59.9572 45.869L59.9559 45.7579L59.9555 45.7527L59.954 45.7321L59.9413 45.5675C59.9242 45.3477 59.907 45.127 59.8899 44.9064L59.8768 44.7393L59.8571 44.5227C59.8435 44.3786 59.8299 44.2346 59.8163 44.0909C59.8023 43.9475 59.7881 43.8043 59.7741 43.6615C59.7668 43.5902 59.7596 43.5191 59.7524 43.448C59.7437 43.3823 59.735 43.3166 59.7263 43.251C59.6543 42.7305 59.5901 42.2189 59.4984 41.7271C59.4551 41.481 59.4151 41.239 59.3701 41.0032C59.3211 40.768 59.2731 40.5379 59.2263 40.3139C59.1378 39.8656 59.0266 39.4469 58.9328 39.0599C58.9088 38.9633 58.8853 38.8686 58.8624 38.7762C58.8369 38.6842 58.8119 38.5945 58.7876 38.5069C58.7382 38.3322 58.6914 38.1664 58.6473 38.0108C58.6024 37.8554 58.5629 37.7095 58.5216 37.5757C58.479 37.4424 58.44 37.3199 58.4047 37.2092C58.3523 37.0466 58.3082 36.9097 58.2734 36.8015C58.2219 36.6418 58.0532 36.552 57.8917 36.598L47.7478 39.4888C47.5932 39.5328 47.4974 39.6868 47.5268 39.8448C47.5378 39.9038 47.5504 39.9713 47.5644 40.0469C47.5789 40.123 47.5949 40.2074 47.6124 40.2992C47.6288 40.3912 47.6418 40.492 47.6584 40.5986C47.6747 40.7052 47.692 40.8189 47.7102 40.9385C47.7192 40.9984 47.7297 41.0593 47.738 41.1223C47.7452 41.1855 47.7525 41.2502 47.7601 41.3162C47.7883 41.5805 47.8305 41.8638 47.8493 42.1676C47.8618 42.3187 47.8746 42.474 47.8878 42.6325C47.8976 42.7915 47.9026 42.9545 47.911 43.1194C47.933 43.4486 47.9288 43.7915 47.9352 44.1372L47.9366 44.266L47.9321 44.38C47.9295 44.4559 47.9268 44.532 47.9242 44.6084C47.9222 44.6844 47.9201 44.7606 47.918 44.837L47.9156 44.9511L47.9087 45.1154C47.8993 45.3366 47.8898 45.5577 47.8804 45.778L47.8734 45.943L47.8724 45.9636L47.8722 45.9686C47.8724 45.9934 47.8704 45.7721 47.871 45.8677L47.8702 45.8758L47.8671 45.9084L47.8611 45.9736C47.8533 46.0603 47.8455 46.1465 47.8377 46.2326C47.8302 46.3185 47.8227 46.4041 47.8153 46.4892C47.8052 46.5739 47.7951 46.6583 47.785 46.7421C47.7635 46.9094 47.7502 47.0752 47.7236 47.2367C47.7002 47.3983 47.6772 47.557 47.6547 47.7126C47.6278 47.867 47.6016 48.0182 47.576 48.1652C47.5529 48.3124 47.522 48.4541 47.4944 48.5913C47.4656 48.7282 47.4427 48.8611 47.4128 48.9873C47.3837 49.1135 47.3558 49.2343 47.3292 49.3492C47.3161 49.4059 47.3033 49.4612 47.2909 49.515C47.2782 49.5611 47.2659 49.6058 47.2538 49.6492C47.2467 49.6757 47.24 49.7006 47.2332 49.7263H59.6398C59.8061 49.7263 59.9446 49.5958 59.9509 49.4297C59.951 49.4287 59.951 49.4277 59.9511 49.4267C59.9614 49.1957 59.972 48.9585 59.9828 48.7159C59.9874 48.4737 59.9921 48.2261 59.997 47.9743C60.004 47.7228 59.9964 47.4672 59.9957 47.2088C59.9943 47.0796 59.9929 46.9497 59.9915 46.8191Z" fill="#333333"/>
<path d="M56.7656 33.7972C56.9321 33.7302 57.008 33.5374 56.9312 33.3753C56.8971 33.3032 56.8573 33.219 56.8121 33.1237C56.7695 33.0341 56.7224 32.935 56.6712 32.827C56.605 32.6921 56.5334 32.5462 56.4567 32.3902C56.3796 32.2349 56.2975 32.0696 56.2109 31.8955C56.167 31.8049 56.1238 31.7302 56.0787 31.6452C56.0337 31.562 55.9877 31.477 55.9406 31.3902C55.8461 31.2169 55.7494 31.0357 55.6456 30.8501C55.5384 30.6666 55.4276 30.4767 55.3138 30.2816C55.2567 30.1843 55.1988 30.0855 55.1402 29.9858C55.0788 29.8875 55.0167 29.788 54.954 29.6875C54.8279 29.4872 54.699 29.2825 54.568 29.0744C54.2916 28.6671 54.0164 28.241 53.7093 27.8264C53.6338 27.722 53.558 27.6172 53.482 27.5121L53.3677 27.3546L53.2487 27.1997C53.0896 26.9936 52.9298 26.7868 52.77 26.58C52.6073 26.3755 52.4391 26.1754 52.2742 25.9745C52.1908 25.8747 52.11 25.7734 52.025 25.6759C51.9396 25.5787 51.8546 25.4818 51.7698 25.3852C51.685 25.289 51.6005 25.193 51.5165 25.0976C51.4329 25.0018 51.3487 24.9076 51.2618 24.8165C51.0897 24.6333 50.9198 24.4524 50.7527 24.2743C50.5853 24.0969 50.412 23.9301 50.2471 23.7633C50.081 23.5975 49.9196 23.4346 49.7548 23.2833C49.5917 23.1307 49.4331 22.9823 49.2797 22.8387C49.127 22.6948 48.9711 22.564 48.8258 22.4345C48.6794 22.3065 48.539 22.1838 48.4055 22.067C48.2685 21.9542 48.1386 21.8472 48.0166 21.7466C47.8944 21.6465 47.7802 21.5527 47.6745 21.4661C47.5687 21.3798 47.4674 21.3049 47.3782 21.2351C47.2482 21.1354 47.1384 21.0511 47.0512 20.9842C46.9183 20.8821 46.7287 20.9039 46.6219 21.0332L41.1774 27.6235C41.0748 27.7478 41.0836 27.9294 41.1981 28.0428C41.2436 28.0878 41.2962 28.1398 41.3553 28.1984C41.4119 28.2553 41.4769 28.3155 41.5434 28.3859C41.61 28.4562 41.6819 28.5323 41.7587 28.6135C41.8357 28.6944 41.9176 28.7804 42.0038 28.8711C42.087 28.9647 42.1744 29.0633 42.2657 29.166C42.3558 29.2697 42.4544 29.3727 42.5481 29.4875C42.6426 29.6012 42.7403 29.7187 42.8409 29.8395C42.9433 29.9581 43.041 30.0869 43.1421 30.217C43.2422 30.348 43.3492 30.4771 43.4498 30.6156C43.5504 30.7537 43.6526 30.894 43.7562 31.0361C43.809 31.106 43.859 31.179 43.9084 31.253C43.9583 31.3265 44.0084 31.4003 44.0588 31.4744C44.1092 31.5482 44.1599 31.6224 44.2106 31.6968C44.2612 31.7712 44.3077 31.849 44.3566 31.9251C44.4527 32.0787 44.5524 32.23 44.6469 32.3847C44.739 32.5409 44.8311 32.6971 44.9228 32.8527L44.9917 32.9688L45.0561 33.0873C45.0992 33.166 45.1421 33.2446 45.1849 33.3227C45.3614 33.6315 45.5104 33.9498 45.6663 34.249C45.7377 34.4023 45.8078 34.553 45.8766 34.7007C45.9109 34.7742 45.9449 34.8469 45.9785 34.9188C46.0096 34.9919 46.0403 35.0641 46.0706 35.1354C46.1316 35.2772 46.1908 35.4154 46.2482 35.5489C46.3012 35.6842 46.3524 35.815 46.4015 35.9404C46.4262 36.003 46.4502 36.0644 46.4736 36.1243C46.4959 36.1828 46.5234 36.2461 46.5382 36.2948C46.5733 36.397 46.6064 36.4941 46.6376 36.5853C46.6694 36.6759 46.6993 36.7606 46.7269 36.8389C46.763 36.947 46.7963 37.046 46.8263 37.1356C46.8597 37.2356 46.8891 37.3241 46.9144 37.3998C46.9711 37.5699 47.1594 37.6566 47.3258 37.5898L56.7656 33.7972Z" fill="#333333"/>
<path d="M29.0404 22.0258C29.1229 22.0371 29.2141 22.0495 29.3135 22.0631C29.4123 22.0803 29.5192 22.0989 29.6333 22.1188C29.7472 22.1384 29.8685 22.1591 29.9963 22.1811C30.1073 22.1996 30.2223 22.2263 30.3418 22.2514L33.7779 15.223C33.6075 15.1964 33.4386 15.17 33.273 15.1442C33.1596 15.1273 33.0479 15.1079 32.9367 15.094C32.8255 15.0806 32.7156 15.0673 32.6072 15.0541C32.3906 15.0284 32.18 15.0034 31.9763 14.9792C31.772 14.9617 31.5747 14.9447 31.3853 14.9285C31.1958 14.914 31.0151 14.8948 30.8421 14.8866C30.6694 14.8782 30.5056 14.8701 30.3517 14.8625C30.1979 14.8552 30.054 14.8485 29.9211 14.8422C29.788 14.84 29.6657 14.8381 29.5553 14.8363C29.3999 14.8344 29.268 14.8328 29.1623 14.8316C28.9946 14.8295 28.8559 14.9606 28.8479 15.1281L28.5345 21.6698C28.5268 21.831 28.6431 21.9713 28.803 21.9932C28.871 22.0026 28.9504 22.0135 29.0404 22.0258Z" fill="#333333"/>
<path d="M38.2754 25.628C38.3677 25.6951 38.4552 25.7588 38.5375 25.8187C38.6198 25.8777 38.6969 25.9329 38.7682 25.984C38.7991 26.0052 38.8501 26.0439 38.8917 26.0748C38.9346 26.1069 38.9755 26.1374 39.0142 26.1663C39.0987 26.2294 39.1734 26.2851 39.2373 26.3328C39.3811 26.44 39.5851 26.4038 39.6835 26.2538L44.1696 19.4204C44.2681 19.2705 44.2203 19.0688 44.0647 18.9796C43.9955 18.9399 43.9147 18.8935 43.8232 18.8411C43.7812 18.8169 43.737 18.7916 43.6905 18.7649C43.64 18.7363 43.5871 18.7064 43.532 18.6752C43.4043 18.6048 43.2663 18.5289 43.1188 18.4476C42.9712 18.3672 42.8142 18.2817 42.6487 18.1914C42.491 18.1124 42.3253 18.0293 42.1523 17.9426C41.9786 17.8579 41.8014 17.7636 41.6113 17.678C41.4222 17.5913 41.2266 17.5017 41.0257 17.4096C40.826 17.3153 40.6153 17.2298 40.4015 17.14C40.1868 17.052 39.9707 16.9559 39.745 16.8711C39.6879 16.8494 39.6298 16.8275 39.5722 16.8057L37.637 25.2055C37.744 25.2727 37.8448 25.344 37.944 25.4083C38.0596 25.4849 38.1701 25.5582 38.2754 25.628Z" fill="#333333"/>
<path d="M23.0169 21.9914C23.1036 21.98 23.1887 21.9659 23.2736 21.9569C23.3585 21.9483 23.4425 21.9398 23.5252 21.9313C23.6904 21.9142 23.851 21.8975 24.0064 21.8814C24.1623 21.8709 24.3129 21.8608 24.4575 21.8511C24.5296 21.8462 24.6002 21.8414 24.6693 21.8366C24.7381 21.832 24.8071 21.8262 24.8662 21.8261C24.988 21.8229 25.1037 21.8199 25.2122 21.8171C25.3205 21.8137 25.4217 21.8104 25.5154 21.8075C25.6309 21.8067 25.737 21.806 25.8328 21.8054C25.9382 21.8048 26.0314 21.8043 26.1111 21.8039C26.2905 21.8029 26.4315 21.651 26.4197 21.472L26.0159 15.3097C26.0041 15.1308 25.8446 14.9986 25.6666 15.021C25.5875 15.031 25.4951 15.0427 25.3905 15.0559C25.2934 15.0682 25.186 15.0819 25.069 15.0968C24.9309 15.1174 24.7814 15.1395 24.6217 15.1632C24.4625 15.1874 24.293 15.2132 24.1143 15.2405C24.0228 15.2533 23.9386 15.2705 23.8503 15.2871C23.7622 15.3039 23.6721 15.3212 23.58 15.3387C23.3963 15.3742 23.205 15.4112 23.0068 15.4495C22.8102 15.4943 22.6068 15.5406 22.3979 15.5882C22.2936 15.6121 22.1879 15.6365 22.0809 15.6611C21.974 15.6861 21.8668 15.7167 21.7581 15.7448C21.5412 15.8026 21.3197 15.8616 21.0943 15.9216C20.8713 15.9889 20.6445 16.0572 20.415 16.1264C20.3005 16.1619 20.1849 16.1953 20.0699 16.2331C19.9555 16.2722 19.8402 16.3114 19.7246 16.3509C19.6092 16.3904 19.4934 16.4301 19.3773 16.4699C19.2611 16.5095 19.1447 16.5492 19.0298 16.5945C18.7996 16.6823 18.5685 16.7706 18.3374 16.8588C18.1074 16.9489 17.8811 17.0487 17.6543 17.1431C17.5412 17.1913 17.4278 17.2378 17.3161 17.2872C17.2051 17.3384 17.0946 17.3895 16.9843 17.4404C16.8744 17.4913 16.7648 17.5421 16.6559 17.5925C16.5469 17.6429 16.4384 17.6926 16.3329 17.7473C16.1212 17.8542 15.9121 17.9598 15.7065 18.0636C15.5008 18.1667 15.3047 18.2806 15.11 18.3853C14.9162 18.4921 14.7256 18.5939 14.5458 18.7036C14.3649 18.8108 14.189 18.9152 14.0189 19.0161C13.8482 19.1157 13.69 19.2232 13.5349 19.3203C13.3808 19.419 13.2332 19.5137 13.0928 19.6037C12.9555 19.698 12.8251 19.7874 12.7026 19.8715C12.5805 19.9556 12.4662 20.0343 12.3604 20.1071C12.2548 20.18 12.1614 20.2521 12.0753 20.3145C11.9587 20.4007 11.8591 20.4742 11.7785 20.5337C11.6439 20.633 11.6123 20.8207 11.7064 20.9591L14.2653 24.7211C14.3564 24.855 14.5344 24.897 14.6754 24.8174C14.7404 24.7807 14.8172 24.7374 14.9048 24.688C14.9812 24.6457 15.0638 24.5958 15.1571 24.5472C15.2503 24.4986 15.3511 24.4462 15.4588 24.3901C15.5661 24.334 15.6805 24.2742 15.8009 24.2112C15.9234 24.1525 16.0522 24.0907 16.1866 24.0263C16.3216 23.9634 16.4586 23.8914 16.6063 23.8285C16.7529 23.7642 16.9045 23.6976 17.0604 23.6292C17.2147 23.5582 17.3781 23.4961 17.5435 23.4298C17.7097 23.3654 17.8762 23.2925 18.0506 23.2309C18.2242 23.1683 18.4008 23.1047 18.5795 23.0403C18.6681 23.0066 18.7593 22.9782 18.8507 22.949C18.9419 22.9196 19.0336 22.8901 19.1256 22.8605C19.2174 22.8308 19.3096 22.801 19.4021 22.7711C19.4951 22.7428 19.5894 22.7176 19.683 22.6905C19.8712 22.6385 20.058 22.5808 20.2475 22.5324C20.4371 22.4855 20.6267 22.4385 20.8156 22.3919C20.9093 22.3669 21.0044 22.3474 21.0991 22.3279C21.1936 22.308 21.2878 22.2882 21.3817 22.2684C21.4753 22.2485 21.5686 22.2287 21.6614 22.209C21.7545 22.1905 21.848 22.1761 21.9403 22.1595C22.1248 22.1275 22.3071 22.0958 22.4865 22.0647C22.6665 22.0399 22.8435 22.0154 23.0169 21.9914Z" fill="#333333"/>
<path d="M5.56903 26.8552C5.50196 26.9501 5.43463 27.0454 5.36699 27.1411C5.29954 27.2367 5.23183 27.3327 5.16388 27.429C5.09624 27.5254 5.03295 27.6255 4.96714 27.7239C4.83741 27.922 4.70466 28.1186 4.57758 28.3189C4.45348 28.521 4.32937 28.723 4.20577 28.9243L4.11356 29.075L4.02603 29.2282C3.96786 29.33 3.90988 29.4316 3.85209 29.5327C3.61588 29.934 3.41068 30.3441 3.20213 30.7337C3.10506 30.9323 3.00957 31.1276 2.91609 31.3189C2.86973 31.4144 2.82382 31.509 2.77853 31.6023C2.7359 31.6969 2.69384 31.7905 2.65228 31.8828C2.56955 32.0671 2.48908 32.2465 2.41121 32.4199C2.33858 32.5956 2.26835 32.7652 2.20096 32.928C2.13489 33.0913 2.06814 33.2459 2.01123 33.3959C1.95508 33.546 1.90178 33.6885 1.85163 33.8223C1.80174 33.956 1.75506 34.0812 1.71193 34.1969C1.67207 34.3137 1.63551 34.421 1.60241 34.518C1.55946 34.6454 1.52258 34.7548 1.49245 34.8444C1.43908 35.0026 1.52024 35.1744 1.67624 35.2342L4.05792 36.1472C4.2095 36.2053 4.38022 36.1375 4.45026 35.991C4.48499 35.9185 4.52649 35.8317 4.57417 35.732C4.61371 35.6498 4.65741 35.5588 4.7051 35.4597C4.75575 35.362 4.81051 35.2565 4.86906 35.1437C4.92741 35.0312 4.98943 34.9112 5.05487 34.7849C5.1208 34.659 5.19672 34.5298 5.27207 34.3934C5.34836 34.2577 5.42788 34.1163 5.51017 33.9699C5.59689 33.8264 5.68651 33.6778 5.77872 33.5251C5.82463 33.4489 5.87118 33.3716 5.9183 33.2934C5.96788 33.2167 6.01809 33.1392 6.0688 33.0605C6.17023 32.9039 6.27387 32.744 6.37928 32.5812C6.60324 32.2641 6.82227 31.9302 7.06979 31.6081C7.13023 31.5267 7.19093 31.4451 7.25181 31.3632L7.34307 31.2402L7.43869 31.1199C7.56602 30.9596 7.69385 30.7987 7.82168 30.6378C7.95185 30.4789 8.08694 30.3241 8.21825 30.168C8.28482 30.0905 8.34873 30.0115 8.41688 29.9361C8.48509 29.8609 8.55305 29.7859 8.62075 29.7111C8.68833 29.6365 8.7556 29.5621 8.82254 29.4881C8.88886 29.4137 8.95581 29.3407 9.02534 29.2706C9.16214 29.1289 9.2973 28.989 9.43025 28.8512C9.56294 28.7137 9.70145 28.5862 9.83218 28.4572C9.96393 28.3292 10.0914 28.2029 10.2226 28.0871C10.3517 27.9696 10.4773 27.8554 10.5988 27.7448C10.7193 27.6336 10.8435 27.5343 10.9582 27.4346C11.0736 27.3363 11.1843 27.242 11.2895 27.1524C11.3928 27.0706 11.4908 26.9931 11.5829 26.9201C11.6745 26.8472 11.7602 26.7789 11.8395 26.7157C11.8758 26.6857 11.9251 26.6497 11.9667 26.618C12.0094 26.5858 12.0502 26.5551 12.0888 26.526C12.173 26.4624 12.2473 26.4063 12.311 26.3583C12.4542 26.2502 12.4763 26.0442 12.3599 25.9078L9.6482 22.731C9.53174 22.5946 9.32477 22.5842 9.19562 22.7086C9.13821 22.7639 9.07107 22.8285 8.99515 22.9017C8.96029 22.9352 8.92353 22.9707 8.88501 23.0078C8.84578 23.0458 8.80846 23.0805 8.75983 23.1302C8.66686 23.224 8.56638 23.3255 8.45894 23.4339C8.35208 23.5423 8.23833 23.6577 8.1184 23.7794C8.00692 23.9001 7.8897 24.0271 7.76743 24.1595C7.64667 24.293 7.51644 24.4274 7.39044 24.5748C7.26394 24.7215 7.1332 24.8731 6.99874 25.0289C6.86263 25.1829 6.73095 25.3483 6.59547 25.5161C6.46101 25.6848 6.31928 25.8531 6.18406 26.0315C6.04922 26.2099 5.91217 26.3912 5.77348 26.5748C5.70299 26.6659 5.6356 26.7598 5.56903 26.8552Z" fill="#333333"/>
<path d="M0.641367 37.9932C0.625514 38.0713 0.606946 38.1627 0.585915 38.2661C0.566651 38.3609 0.545304 38.466 0.522062 38.5804C0.499262 38.6974 0.476967 38.8355 0.452083 38.9765C0.427578 39.1188 0.401557 39.2703 0.374147 39.4299C0.360883 39.5095 0.345726 39.5918 0.333157 39.6747C0.321978 39.7571 0.31061 39.8414 0.298926 39.9273C0.254463 40.2717 0.195915 40.6423 0.162189 41.0381C0.14261 41.2354 0.122526 41.4379 0.102 41.645C0.0850735 41.8524 0.0737683 42.0647 0.0591788 42.2799C0.0250736 42.7101 0.018821 43.1563 0.00461052 43.6076L0 43.7772L0.000821051 43.9476C0.00145263 44.0613 0.00208421 44.1752 0.00271578 44.2895C0.00341052 44.4036 0.00410525 44.5179 0.00473683 44.6323L0.00581051 44.8039L0.0123789 44.9756C0.0216631 45.2041 0.0309473 45.4327 0.0402315 45.6603L0.047242 45.8305L0.0493894 45.8856L0.0524209 45.9267L0.0584841 46.0087C0.0665683 46.1181 0.0745893 46.2272 0.0826103 46.3359C0.0906314 46.4446 0.0986524 46.5528 0.106547 46.6604C0.117473 46.7727 0.128273 46.8846 0.139137 46.9957C0.150063 47.1068 0.160926 47.217 0.171726 47.3267C0.177158 47.3813 0.182589 47.4359 0.188021 47.4901C0.194779 47.5436 0.201536 47.5968 0.208231 47.6499C0.235136 47.8614 0.261599 48.0696 0.287494 48.2733C0.318757 48.4761 0.349326 48.6746 0.37901 48.8677C0.406799 49.0608 0.44261 49.2476 0.475515 49.4281C0.478231 49.4426 0.480946 49.4569 0.483599 49.4712C0.511073 49.6189 0.639535 49.7258 0.789661 49.7258H1.62909C1.80833 49.7258 1.95056 49.5749 1.94002 49.3961C1.93717 49.3483 1.93427 49.3001 1.93105 49.2514C1.92056 49.0773 1.90793 48.8978 1.90389 48.7126C1.89783 48.5276 1.89164 48.3377 1.88526 48.1435C1.88406 47.9495 1.88286 47.7512 1.88166 47.5496C1.88134 47.4992 1.88103 47.4487 1.88071 47.398C1.88179 47.348 1.88292 47.2978 1.88406 47.2474C1.88627 47.1468 1.88848 47.0455 1.89075 46.9435C1.89296 46.8417 1.89524 46.7392 1.89751 46.6362C1.90256 46.5284 1.90755 46.4199 1.91267 46.3112C1.91772 46.2024 1.92284 46.0931 1.92789 45.9835L1.93174 45.9012L1.93364 45.86L1.93389 45.8549C1.93389 45.8418 1.93414 45.8669 1.93427 45.8626L1.93503 45.8527L1.93661 45.8328L1.94936 45.6735C1.96629 45.4609 1.98328 45.2478 2.00033 45.0345L2.01334 44.8749L2.03172 44.7157C2.04397 44.6097 2.05616 44.5039 2.06835 44.3982C2.08048 44.2926 2.09261 44.1872 2.10467 44.0823L2.12267 43.9251L2.14597 43.7691C2.20989 43.3541 2.26421 42.9459 2.34378 42.5551C2.38111 42.3593 2.41452 42.1667 2.45286 41.9792C2.49461 41.7924 2.5354 41.6097 2.57513 41.4319C2.64865 41.0756 2.74395 40.7444 2.82151 40.4374C2.8414 40.3608 2.86086 40.2857 2.87987 40.2124C2.89995 40.1402 2.92161 40.0719 2.94157 40.0042C2.9818 39.8695 3.02001 39.7417 3.05589 39.6215C3.09258 39.5004 3.12271 39.3921 3.15782 39.2834C3.19465 39.1725 3.22837 39.0708 3.25894 38.9789C3.29216 38.8788 3.32153 38.7903 3.34667 38.7146C3.40319 38.5445 3.30448 38.3621 3.13117 38.316L1.02682 37.7548C0.853451 37.7085 0.677114 37.8175 0.641367 37.9932Z" fill="#333333"/>
<path d="M24.4621 48.9008C25.1468 49.2355 25.872 49.3941 26.586 49.3941C28.3783 49.3941 30.1007 48.3955 30.9409 46.6769C31.1027 46.3461 31.228 45.9808 31.3094 45.6369L36.209 24.3706L38.075 16.2717L39.2309 11.2546C39.3655 10.6707 38.901 10.2729 38.435 10.2729C38.1623 10.2729 37.8889 10.4093 37.7348 10.7244L35.3825 15.5359L31.9124 22.634L22.2382 42.422C21.0632 44.8252 22.059 47.7259 24.4621 48.9008ZM26.7656 42.0524C28.0767 42.0524 29.1396 43.1152 29.1396 44.4263C29.1396 45.7374 28.0767 46.8003 26.7656 46.8003C25.4545 46.8003 24.3917 45.7374 24.3917 44.4263C24.3917 43.1151 25.4545 42.0524 26.7656 42.0524Z" fill="#333333"/>
</svg>

<svg width="60" height="60" fill="none" xmlns="http://www.w3.org/2000/svg"><path d="M59.992 46.82l-.014-.394-.015-.396-.003-.099-.002-.05v-.012l-.002-.111v-.005l-.002-.02-.013-.165-.051-.662-.013-.167-.02-.216-.04-.432-.043-.43a193.67 193.67 0 01-.022-.213l-.026-.197c-.072-.52-.136-1.032-.228-1.524-.043-.246-.083-.488-.128-.724l-.144-.69c-.088-.447-.2-.866-.293-1.253a507.87 507.87 0 01-.07-.284l-.075-.27-.14-.495c-.046-.156-.085-.302-.126-.435l-.117-.367-.132-.408a.311.311 0 00-.381-.203l-10.144 2.89a.311.311 0 00-.221.357l.037.202.048.252c.017.092.03.193.046.3l.052.34c.01.06.02.12.028.183l.022.194c.028.264.07.548.09.852l.038.465c.01.158.015.322.023.486.022.33.018.672.024 1.018l.002.129-.005.114-.008.228-.006.229-.002.114-.007.164-.029.663-.007.165v.026l-.002-.101v.008l-.004.032-.006.066-.023.259-.023.256-.03.253c-.021.167-.035.333-.061.495l-.07.476-.078.452c-.023.147-.054.29-.082.426-.028.137-.051.27-.081.396l-.084.362-.038.166-.037.134-.02.077H59.64a.31.31 0 00.31-.296l.001-.003.032-.711.014-.742c.007-.251 0-.507-.001-.765l-.005-.39zm-3.226-13.023a.311.311 0 00.165-.422l-.119-.251-.14-.297a634.591 634.591 0 00-.461-.931c-.044-.091-.087-.166-.132-.25l-.138-.256c-.095-.173-.192-.354-.295-.54a982.09 982.09 0 01-.332-.568l-.174-.296a663.32 663.32 0 01-.186-.299l-.386-.613c-.276-.407-.552-.833-.859-1.248l-.227-.314-.114-.157-.12-.155-.478-.62c-.163-.204-.33-.405-.496-.605-.083-.1-.164-.202-.249-.3l-.255-.29-.254-.287a8.564 8.564 0 00-.254-.281l-.51-.543c-.167-.177-.34-.344-.505-.51-.166-.166-.327-.33-.492-.48l-.475-.445c-.153-.144-.309-.275-.454-.404l-.42-.368-.39-.32-.341-.28c-.106-.087-.208-.162-.297-.232l-.327-.25a.31.31 0 00-.43.048l-5.444 6.59a.311.311 0 00.021.42l.157.155c.057.057.122.117.188.188l.216.227.245.258.262.295c.09.104.188.207.282.322l.293.352c.102.118.2.247.301.377.1.131.207.26.308.399l.306.42a4.2 4.2 0 01.152.217l.15.221.153.223c.05.074.097.152.146.228.096.154.195.305.29.46l.276.468.069.116.064.118.129.236c.176.309.325.627.481.926l.21.452.102.218.093.216.177.414.154.391.072.184c.022.059.05.122.064.17l.1.291.089.254.1.297.087.264c.057.17.245.257.412.19l9.44-3.793zM29.04 22.026l.274.037.32.056.362.062c.111.019.226.045.346.07l3.436-7.028-.505-.079c-.113-.017-.225-.036-.336-.05l-.33-.04-.63-.075-.592-.05c-.19-.015-.37-.034-.543-.042l-.49-.024-.43-.02-.367-.007-.393-.004a.31.31 0 00-.314.296l-.313 6.542a.311.311 0 00.268.323l.237.033zm9.235 3.602l.263.19.23.166c.031.021.082.06.124.09l.122.092.223.167a.311.311 0 00.447-.08l4.486-6.833a.31.31 0 00-.105-.44l-.242-.139-.133-.076-.158-.09-.413-.227-.47-.257-.497-.248c-.173-.085-.35-.18-.54-.265l-.586-.268c-.2-.095-.41-.18-.625-.27-.214-.088-.43-.184-.656-.269l-.173-.065-1.935 8.4c.107.067.208.138.307.202l.331.22zm-15.258-3.637c.087-.011.172-.025.257-.034l.251-.026.481-.05.451-.03.212-.014c.07-.005.138-.01.197-.01l.346-.01.303-.01a481.058 481.058 0 01.596-.003.311.311 0 00.309-.332l-.404-6.162a.311.311 0 00-.35-.289l-.276.035-.321.04-.447.067-.508.078c-.091.012-.175.03-.264.046l-.27.052-.573.11-.61.14-.316.072c-.107.025-.214.056-.323.084l-.664.177-.679.204c-.114.036-.23.07-.345.107l-.345.118-.348.119c-.116.04-.232.08-.347.125l-.693.264c-.23.09-.456.19-.683.284-.113.048-.226.095-.338.144-.11.051-.221.103-.332.153l-.328.152c-.11.05-.218.1-.323.155l-.626.317c-.206.103-.402.217-.597.321-.194.107-.384.209-.564.319l-.527.312c-.17.1-.329.207-.484.304l-.442.284-.39.268-.343.235c-.105.073-.199.145-.285.207l-.296.22a.311.311 0 00-.073.425l2.56 3.762a.31.31 0 00.41.096l.229-.129c.076-.042.159-.092.252-.14.093-.05.194-.102.302-.158l.342-.179.386-.185c.135-.063.272-.135.42-.198l.453-.199c.155-.07.318-.133.484-.2.166-.064.332-.136.507-.198l.529-.19c.088-.034.18-.063.27-.092l.276-.089.276-.089c.093-.028.187-.053.281-.08.188-.052.375-.11.564-.159l.569-.14a4.46 4.46 0 01.283-.064l.283-.06.28-.059c.093-.018.186-.033.278-.05l.546-.094.53-.074zM5.569 26.855l-.202.286-.203.288c-.068.096-.131.197-.197.295-.13.198-.262.395-.39.595l-.371.605-.092.151-.088.153-.174.305c-.236.401-.441.811-.65 1.2l-.286.586-.137.283-.127.28-.24.538-.211.508c-.066.163-.133.318-.19.468l-.16.426-.14.375a483.426 483.426 0 00-.22.648.311.311 0 00.185.39l2.382.912a.311.311 0 00.392-.156l.124-.259.131-.272.164-.316.186-.36c.066-.125.142-.254.217-.39l.238-.424.269-.445.14-.232.15-.233.31-.479c.224-.317.443-.65.69-.973l.183-.245.091-.123.096-.12.383-.482c.13-.16.265-.314.396-.47.067-.078.13-.156.199-.232l.204-.225.202-.223c.066-.074.133-.147.202-.217l.405-.42c.133-.137.271-.265.402-.394.132-.128.26-.254.39-.37l.377-.342c.12-.111.245-.21.36-.31l.33-.283.294-.232.256-.204c.037-.03.086-.066.128-.098l.122-.092.222-.168a.311.311 0 00.049-.45L9.648 22.73a.311.311 0 00-.452-.022l-.2.193-.111.106c-.04.038-.077.073-.125.122l-.301.304-.34.345-.352.38c-.12.134-.25.268-.377.416l-.39.455c-.136.154-.268.32-.404.487-.134.169-.276.337-.41.516l-.412.543c-.07.09-.137.185-.204.28zM.641 37.993l-.055.273-.064.314c-.023.117-.045.256-.07.397l-.078.453c-.013.08-.028.162-.04.245l-.035.252c-.045.345-.103.715-.137 1.111l-.06.607c-.017.207-.028.42-.043.635-.034.43-.04.876-.054 1.328l-.005.17v.17a11687.538 11687.538 0 01.005.684v.172l.007.172.028.684.007.17.002.056.003.04.006.083.025.327.024.324.032.336.033.33.016.164.02.16.08.623c.03.203.061.402.091.595.028.193.064.38.097.56l.008.043a.311.311 0 00.306.255h.84c.178 0 .32-.151.31-.33a22.34 22.34 0 00-.009-.145c-.01-.174-.023-.353-.027-.538l-.019-.57-.003-.593-.001-.152.003-.15.007-.304.007-.308.015-.325.015-.328.004-.082.002-.041v-.005.008l.001-.01.002-.02.012-.16.051-.639.013-.16.019-.158.036-.318.037-.316.018-.157.023-.156c.064-.415.118-.823.198-1.214.037-.196.07-.388.109-.576l.122-.547c.074-.356.169-.688.247-.995l.058-.225c.02-.072.042-.14.062-.208l.114-.383c.037-.12.067-.229.102-.338l.1-.304.089-.264a.311.311 0 00-.216-.399l-2.104-.561a.311.311 0 00-.386.238zM24.462 48.9a4.843 4.843 0 006.847-3.264l4.9-21.265 1.866-8.1 1.156-5.016c.134-.584-.33-.982-.796-.982a.762.762 0 00-.7.451l-2.352 4.812-3.47 7.098-9.675 19.788a4.844 4.844 0 002.224 6.479zm2.304-6.848a2.374 2.374 0 110 4.748 2.374 2.374 0 010-4.748z" fill="#333"/></svg>
